assets/img/nielsen_logo.svg

<svg height="238.0956" width="674.72205" xmlns="http://www.w3.org/2000/svg" xmlns:xlink="http://www.w3.org/1999/xlink"><clipPath id="a"><path d="m58.517 38.347h98.635v34.807h-98.635z"/></clipPath><g clip-path="url(#a)" transform="matrix(6.8406087 0 0 -6.8406087 -400.293267 500.41378)"><path d="m0 0c.616.614 1.136 1.055 1.64 1.375.5.319 1.128.479 1.882.479 1.186 0 2.03-.405 2.532-1.214.502-.811.754-1.879.754-3.202v-8.629c0-.364-.183-.597-.548-.701-.365-.102-.856-.176-1.472-.222v-.376h6.989v.308c-.205.021-.429.05-.668.085-.24.034-.462.08-.668.137-.205.058-.383.142-.53.256-.148.116-.223.252-.223.411v10.066c0 1.551-.355 2.818-1.061 3.8-.708.981-1.723 1.471-3.047 1.471-.616 0-1.209-.12-1.78-.36-.571-.239-1.096-.542-1.575-.906-.478-.366-.907-.77-1.283-1.216-.377-.445-.691-.861-.941-1.249" fill="#00adef" transform="translate(64.1334 60.4463)"/><path d="m0 0v-10.626c.046-.229.126-.393.239-.495.114-.104.252-.178.411-.225.159-.045.343-.074.548-.085.206-.011.422-.039.651-.086v-.341h-6.607v.341c.525.047.976.15 1.352.308.376.161.565.421.565.788v11.776c0 .183-.018.319-.052.411-.034.091-.131.195-.29.309-.206.114-.446.245-.719.393-.274.149-.548.28-.822.395v.205l4.485 1.607h.231z" fill="#00adef" transform="translate(63.2752 59.8148)"/><g fill="#797a7d"><path d="m0 0c.616.614 1.135 1.055 1.638 1.375.502.319 1.13.479 1.882.479 1.188 0 2.032-.405 2.535-1.214.501-.811.752-1.878.752-3.202v-8.629c0-.364-.183-.597-.548-.701-.365-.102-.855-.176-1.472-.222v-.376h6.989v.308c-.204.022-.428.05-.668.086-.239.033-.461.08-.667.136-.206.058-.382.142-.53.257-.149.115-.222.251-.222.41v10.066c0 1.551-.355 2.818-1.061 3.8-.708.981-1.725 1.471-3.048 1.471-.616 0-1.21-.119-1.781-.359-.57-.24-1.095-.543-1.574-.907-.479-.365-.907-.77-1.284-1.216-.377-.444-.689-.861-.94-1.248" transform="translate(145.3765 60.4463)"/><path d="m0 0v-10.627c.046-.228.126-.393.24-.496.113-.103.251-.177.41-.223.16-.046.343-.075.549-.087.205-.01.421-.038.65-.084v-.342h-6.607v.342c.525.046.976.149 1.352.307.377.161.565.421.565.788v11.777c0 .183-.018.318-.05.41-.036.091-.132.195-.292.31-.205.113-.444.245-.718.392-.275.15-.549.28-.823.394v.206l4.485 1.608h.233z" transform="translate(144.5179 59.8156)"/><path d="m0 0v.347c.279.024.557.053.836.088.279.036.528.094.748.176.221.079.408.19.558.329.152.139.226.314.226.523v11.951c0 .187-.016.349-.051.488-.035.14-.134.269-.297.384-.208.139-.458.278-.749.417-.29.14-.597.268-.923.384v.21l4.709 1.533h.208v-15.576c.047-.232.145-.401.296-.504.152-.106.331-.182.541-.227.209-.048.435-.076.679-.088.244-.011.482-.04.714-.088v-.347z" transform="translate(76.7645 47.9554)"/><path d="m0 0c-.349-.349-.782-.524-1.298-.524-.496 0-.923.181-1.283.542-.36.36-.54.789-.54 1.285 0 .52.175.948.524 1.285.348.34.78.509 1.299.509.516 0 .949-.169 1.298-.509.348-.337.523-.765.523-1.285 0-.518-.175-.953-.523-1.303" transform="translate(81.7286 68.2479)"/><path d="m0 0c.046.278.174.68.384 1.201.208.523.504 1.04.886 1.552.384.509.837.958 1.359 1.34.522.385 1.108.575 1.758.575.997 0 1.794-.307 2.386-.923.59-.615.887-1.353.887-2.212 0-.324-.04-.57-.122-.732-.082-.163-.204-.337-.366-.523-.233-.092-.498-.151-.801-.174-.302-.023-.626-.035-.973-.035-.536 0-1.022-.006-1.464-.017-.441-.012-.865-.023-1.27-.034-.407-.012-.65-.018-1.068-.018l-.156-.475h9.676c-.07.975-.29 1.822-.661 2.541-.373.721-.854 1.319-1.448 1.793-.592.476-1.289.831-2.09 1.062-.803.232-1.657.348-2.563.348-1.116 0-2.133-.236-3.051-.714-.917-.476-1.695-1.096-2.334-1.863-.64-.767-1.133-1.632-1.482-2.596-.348-.963-.523-1.934-.523-2.908 0-1.208.186-2.352.558-3.433.371-1.079.901-2.02 1.587-2.821.684-.802 1.514-1.422 2.49-1.864.976-.439 2.058-.661 3.243-.661.953 0 1.818.174 2.596.523.779.348 1.447.79 2.004 1.324s1.001 1.121 1.325 1.759c.326.639.536 1.214.628 1.726l-.279.069c-.279-.858-.854-1.585-1.724-2.177-.872-.594-1.889-.889-3.049-.889-1.07 0-2.011.197-2.823.593-.813.394-1.488.935-2.022 1.621-.534.683-.942 1.474-1.221 2.368-.278.896-.417 1.829-.417 2.805 0 .256.011.506.035.749.023.243.035.459.035.645z" transform="translate(127.0557 59.5218)"/><path d="m0 0c.046.278.174.679.384 1.201.208.524.505 1.04.886 1.551.384.51.837.959 1.359 1.342s1.107.575 1.759.575c.997 0 1.793-.308 2.384-.923.592-.616.888-1.354.888-2.213 0-.325-.04-.569-.122-.732-.081-.163-.204-.337-.365-.523-.234-.092-.5-.151-.802-.174s-.626-.035-.973-.035c-.536 0-1.023-.006-1.464-.017-.441-.012-.865-.023-1.27-.035-.406-.011-.651-.017-1.068-.017l-.155-.475h9.675c-.07.975-.29 1.821-.661 2.541-.372.72-.854 1.318-1.448 1.793-.592.476-1.289.832-2.091 1.062-.802.233-1.656.348-2.562.348-1.116 0-2.133-.237-3.051-.714-.917-.476-1.695-1.097-2.334-1.863-.64-.767-1.134-1.632-1.481-2.596-.35-.963-.524-1.934-.524-2.908 0-1.207.186-2.352.558-3.433.371-1.079.901-2.02 1.587-2.82.684-.802 1.515-1.423 2.491-1.865.975-.44 2.057-.66 3.242-.66.953 0 1.818.173 2.596.522.779.348 1.448.789 2.004 1.324.558.534 1.001 1.122 1.325 1.759.326.639.536 1.214.628 1.726l-.279.069c-.279-.859-.854-1.585-1.725-2.177-.87-.593-1.888-.89-3.048-.89-1.069 0-2.011.199-2.823.593-.814.395-1.488.936-2.022 1.621-.534.684-.942 1.474-1.221 2.369-.278.895-.417 1.829-.417 2.805 0 .256.011.506.035.749.023.244.036.459.036.645z" transform="translate(88.3798 59.5233)"/><path d="m0 0v.384c1.068.068 1.776.18 2.124.331.35.15.525.412.525.783v20.04c0 .187-.018.326-.053.419-.036.093-.133.197-.296.315-.21.115-.524.295-.941.539-.418.245-.766.423-1.045.54v.209l4.987 1.638h.243v-23.875c0-.231.053-.405.156-.522.105-.117.263-.197.471-.245.21-.045.477-.075.803-.085.325-.012.708-.041 1.15-.087v-.384z" transform="translate(100.4227 47.9554)"/><path d="m0 0c-.359-.663-.841-1.202-1.445-1.621-.603-.418-1.294-.719-2.072-.906-.777-.187-1.596-.28-2.456-.28-1.02 0-1.984.093-2.889.28-.906.187-1.742.452-2.508.801v4.602h.257c.185-.558.419-1.145.699-1.76.28-.616.617-1.186 1.013-1.709s.874-.953 1.432-1.289c.56-.338 1.223-.506 1.992-.506 1.118 0 2.009.318 2.673.958.663.64.995 1.621.995 2.946 0 .72-.228 1.319-.679 1.795-.455.478-1.077.797-1.868.959-.628.117-1.233.245-1.814.384-.582.139-1.107.29-1.57.454-.884.302-1.599.824-2.147 1.568-.546.743-.82 1.638-.82 2.684 0 .721.152 1.371.456 1.952s.712 1.081 1.226 1.499c.513.42 1.106.738 1.78.959.674.222 1.393.331 2.16.331.975 0 1.835-.086 2.578-.261.744-.174 1.453-.389 2.126-.644l.418-4.324-.278-.07c-.326.698-.652 1.342-.976 1.935-.326.593-.685 1.104-1.081 1.535-.394.429-.842.76-1.341.993-.499.232-1.075.348-1.725.348-.394 0-.784-.069-1.167-.209-.383-.139-.72-.342-1.01-.609-.29-.268-.529-.605-.715-1.011-.186-.407-.279-.878-.279-1.412 0-.861.245-1.477.732-1.849s1.102-.65 1.845-.836c.511-.117 1.069-.238 1.671-.367.604-.127 1.127-.249 1.568-.365 1.044-.256 1.933-.791 2.663-1.602.731-.816 1.097-1.815 1.097-2.999 0-.907-.181-1.691-.541-2.354" transform="translate(121.368 50.7413)"/><path d="m0 0c0-.984-.797-1.781-1.78-1.781-.984 0-1.782.797-1.782 1.781 0 .983.798 1.78 1.782 1.78.983 0 1.78-.797 1.78-1.78" transform="translate(63.4052 40.1282)"/><path d="m0 0c0-.984-.797-1.781-1.78-1.781-.985 0-1.782.797-1.782 1.781 0 .983.797 1.78 1.782 1.78.983 0 1.78-.797 1.78-1.78" transform="translate(74.9155 40.1282)"/><path d="m0 0c0-.984-.797-1.781-1.781-1.781s-1.781.797-1.781 1.781c0 .983.797 1.78 1.781 1.78s1.781-.797 1.781-1.78" transform="translate(86.4263 40.1282)"/><path d="m0 0c0-.984-.797-1.781-1.781-1.781-.983 0-1.781.797-1.781 1.781 0 .983.798 1.78 1.781 1.78.984 0 1.781-.797 1.781-1.78" transform="translate(97.9366 40.1282)"/><path d="m0 0c0-.984-.797-1.781-1.78-1.781-.985 0-1.782.797-1.782 1.781 0 .983.797 1.78 1.782 1.78.983 0 1.78-.797 1.78-1.78" transform="translate(109.4469 40.1282)"/><path d="m0 0c0-.984-.797-1.781-1.78-1.781-.984 0-1.782.797-1.782 1.781 0 .983.798 1.78 1.782 1.78.983 0 1.78-.797 1.78-1.78" transform="translate(120.9564 40.1282)"/><path d="m0 0c0-.984-.797-1.781-1.78-1.781-.984 0-1.782.797-1.782 1.781 0 .983.798 1.78 1.782 1.78.983 0 1.78-.797 1.78-1.78" transform="translate(132.4667 40.1282)"/><path d="m0 0c0-.984-.797-1.781-1.781-1.781s-1.781.797-1.781 1.781c0 .983.797 1.78 1.781 1.78s1.781-.797 1.781-1.78" transform="translate(155.4873 40.1282)"/><path d="m0 0c0-.984-.797-1.781-1.78-1.781-.984 0-1.782.797-1.782 1.781 0 .983.798 1.78 1.782 1.78.983 0 1.78-.797 1.78-1.78" transform="translate(143.977 40.1282)"/></g></g></svg>

<?xml version="1.0" encoding="UTF-8" standalone="no"?>
<!-- Created with Inkscape (http://www.inkscape.org/) -->
<svg xmlns:dc="http://purl.org/dc/elements/1.1/" xmlns:cc="http://creativecommons.org/ns#" xmlns:rdf="http://www.w3.org/1999/02/22-rdf-syntax-ns#" xmlns:svg="http://www.w3.org/2000/svg" xmlns="http://www.w3.org/2000/svg" version="1.1" width="674.72205" height="238.0956" id="svg3193">
  <defs id="defs3195">
    <clipPath id="clipPath3013">
      <path d="m 58.517,38.347 98.635,0 0,34.807 -98.635,0 0,-34.807 z" id="path3015"/>
    </clipPath>
  </defs>
  <metadata id="metadata3198">
    <rdf:RDF>
      <cc:Work rdf:about="">
        <dc:format>image/svg+xml</dc:format>
        <dc:type rdf:resource="http://purl.org/dc/dcmitype/StillImage"/>
        <dc:title/>
      </cc:Work>
    </rdf:RDF>
  </metadata>
  <g transform="translate(-95.496117,-307.75117)" id="layer1">
    <g transform="matrix(6.8406087,0,0,-6.8406087,-304.79715,808.16495)" id="g3009">
      <g clip-path="url(#clipPath3013)" id="g3011">
        <g transform="translate(64.1334,60.4463)" id="g3017">
          <path d="m 0,0 c 0.616,0.614 1.136,1.055 1.64,1.375 0.5,0.319 1.128,0.479 1.882,0.479 1.186,0 2.03,-0.405 2.532,-1.214 0.502,-0.811 0.754,-1.879 0.754,-3.202 l 0,-8.629 c 0,-0.364 -0.183,-0.597 -0.548,-0.701 -0.365,-0.102 -0.856,-0.176 -1.472,-0.222 l 0,-0.376 6.989,0 0,0.308 c -0.205,0.021 -0.429,0.05 -0.668,0.085 -0.24,0.034 -0.462,0.08 -0.668,0.137 -0.205,0.058 -0.383,0.142 -0.53,0.256 -0.148,0.116 -0.223,0.252 -0.223,0.411 l 0,10.066 c 0,1.551 -0.355,2.818 -1.061,3.8 C 7.919,3.554 6.904,4.044 5.58,4.044 4.964,4.044 4.371,3.924 3.8,3.684 3.229,3.445 2.704,3.142 2.225,2.778 1.747,2.412 1.318,2.008 0.942,1.562 0.565,1.117 0.251,0.701 0.001,0.313" id="path3019" style="fill:#00adef;fill-opacity:1;fill-rule:nonzero;stroke:none"/>
        </g>
        <g transform="translate(63.2752,59.8148)" id="g3021">
          <path d="m 0,0 0,-10.626 c 0.046,-0.229 0.126,-0.393 0.239,-0.495 0.114,-0.104 0.252,-0.178 0.411,-0.225 0.159,-0.045 0.343,-0.074 0.548,-0.085 0.206,-0.011 0.422,-0.039 0.651,-0.086 l 0,-0.341 -6.607,0 0,0.341 c 0.525,0.047 0.976,0.15 1.352,0.308 0.376,0.161 0.565,0.421 0.565,0.788 l 0,11.776 c 0,0.183 -0.018,0.319 -0.052,0.411 -0.034,0.091 -0.131,0.195 -0.29,0.309 -0.206,0.114 -0.446,0.245 -0.719,0.393 -0.274,0.149 -0.548,0.28 -0.822,0.395 l 0,0.205 4.485,1.607 0.231,0 L 0,0" id="path3023" style="fill:#00adef;fill-opacity:1;fill-rule:nonzero;stroke:none"/>
        </g>
        <g transform="translate(145.3765,60.4463)" id="g3025">
          <path d="m 0,0 c 0.616,0.614 1.135,1.055 1.638,1.375 0.502,0.319 1.13,0.479 1.882,0.479 1.188,0 2.032,-0.405 2.535,-1.214 0.501,-0.811 0.752,-1.878 0.752,-3.202 l 0,-8.629 c 0,-0.364 -0.183,-0.597 -0.548,-0.701 -0.365,-0.102 -0.855,-0.176 -1.472,-0.222 l 0,-0.376 6.989,0 0,0.308 c -0.204,0.022 -0.428,0.05 -0.668,0.086 -0.239,0.033 -0.461,0.08 -0.667,0.136 -0.206,0.058 -0.382,0.142 -0.53,0.257 -0.149,0.115 -0.222,0.251 -0.222,0.41 l 0,10.066 c 0,1.551 -0.355,2.818 -1.061,3.8 C 7.92,3.554 6.903,4.044 5.58,4.044 4.964,4.044 4.37,3.925 3.799,3.685 3.229,3.445 2.704,3.142 2.225,2.778 1.746,2.413 1.318,2.008 0.941,1.562 0.564,1.118 0.252,0.701 0.001,0.314" id="path3027" style="fill:#797a7d;fill-opacity:1;fill-rule:nonzero;stroke:none"/>
        </g>
        <g transform="translate(144.5179,59.8156)" id="g3029">
          <path d="m 0,0 0,-10.627 c 0.046,-0.228 0.126,-0.393 0.24,-0.496 0.113,-0.103 0.251,-0.177 0.41,-0.223 0.16,-0.046 0.343,-0.075 0.549,-0.087 0.205,-0.01 0.421,-0.038 0.65,-0.084 l 0,-0.342 -6.607,0 0,0.342 c 0.525,0.046 0.976,0.149 1.352,0.307 0.377,0.161 0.565,0.421 0.565,0.788 l 0,11.777 c 0,0.183 -0.018,0.318 -0.05,0.41 -0.036,0.091 -0.132,0.195 -0.292,0.31 -0.205,0.113 -0.444,0.245 -0.718,0.392 -0.275,0.15 -0.549,0.28 -0.823,0.394 l 0,0.206 4.485,1.608 0.233,0 L 0,0" id="path3031" style="fill:#797a7d;fill-opacity:1;fill-rule:nonzero;stroke:none"/>
        </g>
        <g transform="translate(76.7645,47.9554)" id="g3033">
          <path d="M 0,0 0,0.347 C 0.279,0.371 0.557,0.4 0.836,0.435 1.115,0.471 1.364,0.529 1.584,0.611 1.805,0.69 1.992,0.801 2.142,0.94 2.294,1.079 2.368,1.254 2.368,1.463 l 0,11.951 c 0,0.187 -0.016,0.349 -0.051,0.488 -0.035,0.14 -0.134,0.269 -0.297,0.384 -0.208,0.139 -0.458,0.278 -0.749,0.417 -0.29,0.14 -0.597,0.268 -0.923,0.384 l 0,0.21 4.709,1.533 0.208,0 0,-15.576 C 5.312,1.022 5.41,0.853 5.561,0.75 5.713,0.644 5.892,0.568 6.102,0.523 6.311,0.475 6.537,0.447 6.781,0.435 7.025,0.424 7.263,0.395 7.495,0.347 L 7.495,0 0,0" id="path3035" style="fill:#797a7d;fill-opacity:1;fill-rule:nonzero;stroke:none"/>
        </g>
        <g transform="translate(81.7286,68.2479)" id="g3037">
          <path d="m 0,0 c -0.349,-0.349 -0.782,-0.524 -1.298,-0.524 -0.496,0 -0.923,0.181 -1.283,0.542 -0.36,0.36 -0.54,0.789 -0.54,1.285 0,0.52 0.175,0.948 0.524,1.285 0.348,0.34 0.78,0.509 1.299,0.509 C -0.782,3.097 -0.349,2.928 0,2.588 0.348,2.251 0.523,1.823 0.523,1.303 0.523,0.785 0.348,0.35 0,0" id="path3039" style="fill:#797a7d;fill-opacity:1;fill-rule:nonzero;stroke:none"/>
        </g>
        <g transform="translate(127.0557,59.5218)" id="g3041">
          <path d="m 0,0 c 0.046,0.278 0.174,0.68 0.384,1.201 0.208,0.523 0.504,1.04 0.886,1.552 0.384,0.509 0.837,0.958 1.359,1.34 0.522,0.385 1.108,0.575 1.758,0.575 0.997,0 1.794,-0.307 2.386,-0.923 C 7.363,3.13 7.66,2.392 7.66,1.533 7.66,1.209 7.62,0.963 7.538,0.801 7.456,0.638 7.334,0.464 7.172,0.278 6.939,0.186 6.674,0.127 6.371,0.104 6.069,0.081 5.745,0.069 5.398,0.069 4.862,0.069 4.376,0.063 3.934,0.052 3.493,0.04 3.069,0.029 2.664,0.018 2.257,0.006 2.014,0 1.596,0 l -0.156,-0.475 9.676,0 C 11.046,0.5 10.826,1.347 10.455,2.066 10.082,2.787 9.601,3.385 9.007,3.859 8.415,4.335 7.718,4.69 6.917,4.921 6.114,5.153 5.26,5.269 4.354,5.269 3.238,5.269 2.221,5.033 1.303,4.555 0.386,4.079 -0.392,3.459 -1.031,2.692 -1.671,1.925 -2.164,1.06 -2.513,0.096 c -0.348,-0.963 -0.523,-1.934 -0.523,-2.908 0,-1.208 0.186,-2.352 0.558,-3.433 0.371,-1.079 0.901,-2.02 1.587,-2.821 0.684,-0.802 1.514,-1.422 2.49,-1.864 0.976,-0.439 2.058,-0.661 3.243,-0.661 0.953,0 1.818,0.174 2.596,0.523 0.779,0.348 1.447,0.79 2.004,1.324 0.557,0.534 1.001,1.121 1.325,1.759 0.326,0.639 0.536,1.214 0.628,1.726 L 11.116,-6.19 C 10.837,-7.048 10.262,-7.775 9.392,-8.367 8.52,-8.961 7.503,-9.256 6.343,-9.256 c -1.07,0 -2.011,0.197 -2.823,0.593 -0.813,0.394 -1.488,0.935 -2.022,1.621 -0.534,0.683 -0.942,1.474 -1.221,2.368 -0.278,0.896 -0.417,1.829 -0.417,2.805 0,0.256 0.011,0.506 0.035,0.749 0.023,0.243 0.035,0.459 0.035,0.645 L 0,0" id="path3043" style="fill:#797a7d;fill-opacity:1;fill-rule:nonzero;stroke:none"/>
        </g>
        <g transform="translate(88.3798,59.5233)" id="g3045">
          <path d="m 0,0 c 0.046,0.278 0.174,0.679 0.384,1.201 0.208,0.524 0.505,1.04 0.886,1.551 0.384,0.51 0.837,0.959 1.359,1.342 0.522,0.383 1.107,0.575 1.759,0.575 0.997,0 1.793,-0.308 2.384,-0.923 C 7.364,3.13 7.66,2.392 7.66,1.533 7.66,1.208 7.62,0.964 7.538,0.801 7.457,0.638 7.334,0.464 7.173,0.278 6.939,0.186 6.673,0.127 6.371,0.104 6.069,0.081 5.745,0.069 5.398,0.069 4.862,0.069 4.375,0.063 3.934,0.052 3.493,0.04 3.069,0.029 2.664,0.017 2.258,0.006 2.013,0 1.596,0 l -0.155,-0.475 9.675,0 C 11.046,0.5 10.826,1.346 10.455,2.066 10.083,2.786 9.601,3.384 9.007,3.859 8.415,4.335 7.718,4.691 6.916,4.921 6.114,5.154 5.26,5.269 4.354,5.269 3.238,5.269 2.221,5.032 1.303,4.555 0.386,4.079 -0.392,3.458 -1.031,2.692 -1.671,1.925 -2.165,1.06 -2.512,0.096 c -0.35,-0.963 -0.524,-1.934 -0.524,-2.908 0,-1.207 0.186,-2.352 0.558,-3.433 0.371,-1.079 0.901,-2.02 1.587,-2.82 0.684,-0.802 1.515,-1.423 2.491,-1.865 0.975,-0.44 2.057,-0.66 3.242,-0.66 0.953,0 1.818,0.173 2.596,0.522 0.779,0.348 1.448,0.789 2.004,1.324 0.558,0.534 1.001,1.122 1.325,1.759 0.326,0.639 0.536,1.214 0.628,1.726 l -0.279,0.069 c -0.279,-0.859 -0.854,-1.585 -1.725,-2.177 -0.87,-0.593 -1.888,-0.89 -3.048,-0.89 -1.069,0 -2.011,0.199 -2.823,0.593 -0.814,0.395 -1.488,0.936 -2.022,1.621 -0.534,0.684 -0.942,1.474 -1.221,2.369 -0.278,0.895 -0.417,1.829 -0.417,2.805 0,0.256 0.011,0.506 0.035,0.749 0.023,0.244 0.036,0.459 0.036,0.645 L 0,0" id="path3047" style="fill:#797a7d;fill-opacity:1;fill-rule:nonzero;stroke:none"/>
        </g>
        <g transform="translate(100.4227,47.9554)" id="g3049">
          <path d="m 0,0 0,0.384 c 1.068,0.068 1.776,0.18 2.124,0.331 0.35,0.15 0.525,0.412 0.525,0.783 l 0,20.04 c 0,0.187 -0.018,0.326 -0.053,0.419 C 2.56,22.05 2.463,22.154 2.3,22.272 2.09,22.387 1.776,22.567 1.359,22.811 0.941,23.056 0.593,23.234 0.314,23.351 l 0,0.209 4.987,1.638 0.243,0 0,-23.875 C 5.544,1.092 5.597,0.918 5.7,0.801 5.805,0.684 5.963,0.604 6.171,0.556 6.381,0.511 6.648,0.481 6.974,0.471 7.299,0.459 7.682,0.43 8.124,0.384 L 8.124,0 0,0" id="path3051" style="fill:#797a7d;fill-opacity:1;fill-rule:nonzero;stroke:none"/>
        </g>
        <g transform="translate(121.368,50.7413)" id="g3053">
          <path d="m 0,0 c -0.359,-0.663 -0.841,-1.202 -1.445,-1.621 -0.603,-0.418 -1.294,-0.719 -2.072,-0.906 -0.777,-0.187 -1.596,-0.28 -2.456,-0.28 -1.02,0 -1.984,0.093 -2.889,0.28 -0.906,0.187 -1.742,0.452 -2.508,0.801 l 0,4.602 0.257,0 c 0.185,-0.558 0.419,-1.145 0.699,-1.76 0.28,-0.616 0.617,-1.186 1.013,-1.709 0.396,-0.523 0.874,-0.953 1.432,-1.289 0.56,-0.338 1.223,-0.506 1.992,-0.506 1.118,0 2.009,0.318 2.673,0.958 0.663,0.64 0.995,1.621 0.995,2.946 0,0.72 -0.228,1.319 -0.679,1.795 -0.455,0.478 -1.077,0.797 -1.868,0.959 -0.628,0.117 -1.233,0.245 -1.814,0.384 -0.582,0.139 -1.107,0.29 -1.57,0.454 -0.884,0.302 -1.599,0.824 -2.147,1.568 -0.546,0.743 -0.82,1.638 -0.82,2.684 0,0.721 0.152,1.371 0.456,1.952 0.304,0.581 0.712,1.081 1.226,1.499 0.513,0.42 1.106,0.738 1.78,0.959 0.674,0.222 1.393,0.331 2.16,0.331 0.975,0 1.835,-0.086 2.578,-0.261 0.744,-0.174 1.453,-0.389 2.126,-0.644 l 0.418,-4.324 -0.278,-0.07 c -0.326,0.698 -0.652,1.342 -0.976,1.935 -0.326,0.593 -0.685,1.104 -1.081,1.535 -0.394,0.429 -0.842,0.76 -1.341,0.993 -0.499,0.232 -1.075,0.348 -1.725,0.348 -0.394,0 -0.784,-0.069 -1.167,-0.209 -0.383,-0.139 -0.72,-0.342 -1.01,-0.609 -0.29,-0.268 -0.529,-0.605 -0.715,-1.011 -0.186,-0.407 -0.279,-0.878 -0.279,-1.412 0,-0.861 0.245,-1.477 0.732,-1.849 0.487,-0.372 1.102,-0.65 1.845,-0.836 C -5.947,7.57 -5.389,7.449 -4.787,7.32 -4.183,7.193 -3.66,7.071 -3.219,6.955 -2.175,6.699 -1.286,6.164 -0.556,5.353 0.175,4.537 0.541,3.538 0.541,2.354 0.541,1.447 0.36,0.663 0,0" id="path3055" style="fill:#797a7d;fill-opacity:1;fill-rule:nonzero;stroke:none"/>
        </g>
        <g transform="translate(63.4052,40.1282)" id="g3057">
          <path d="m 0,0 c 0,-0.984 -0.797,-1.781 -1.78,-1.781 -0.984,0 -1.782,0.797 -1.782,1.781 0,0.983 0.798,1.78 1.782,1.78 C -0.797,1.78 0,0.983 0,0" id="path3059" style="fill:#797a7d;fill-opacity:1;fill-rule:nonzero;stroke:none"/>
        </g>
        <g transform="translate(74.9155,40.1282)" id="g3061">
          <path d="m 0,0 c 0,-0.984 -0.797,-1.781 -1.78,-1.781 -0.985,0 -1.782,0.797 -1.782,1.781 0,0.983 0.797,1.78 1.782,1.78 C -0.797,1.78 0,0.983 0,0" id="path3063" style="fill:#797a7d;fill-opacity:1;fill-rule:nonzero;stroke:none"/>
        </g>
        <g transform="translate(86.4263,40.1282)" id="g3065">
          <path d="m 0,0 c 0,-0.984 -0.797,-1.781 -1.781,-1.781 -0.984,0 -1.781,0.797 -1.781,1.781 0,0.983 0.797,1.78 1.781,1.78 C -0.797,1.78 0,0.983 0,0" id="path3067" style="fill:#797a7d;fill-opacity:1;fill-rule:nonzero;stroke:none"/>
        </g>
        <g transform="translate(97.9366,40.1282)" id="g3069">
          <path d="m 0,0 c 0,-0.984 -0.797,-1.781 -1.781,-1.781 -0.983,0 -1.781,0.797 -1.781,1.781 0,0.983 0.798,1.78 1.781,1.78 C -0.797,1.78 0,0.983 0,0" id="path3071" style="fill:#797a7d;fill-opacity:1;fill-rule:nonzero;stroke:none"/>
        </g>
        <g transform="translate(109.4469,40.1282)" id="g3073">
          <path d="m 0,0 c 0,-0.984 -0.797,-1.781 -1.78,-1.781 -0.985,0 -1.782,0.797 -1.782,1.781 0,0.983 0.797,1.78 1.782,1.78 C -0.797,1.78 0,0.983 0,0" id="path3075" style="fill:#797a7d;fill-opacity:1;fill-rule:nonzero;stroke:none"/>
        </g>
        <g transform="translate(120.9564,40.1282)" id="g3077">
          <path d="m 0,0 c 0,-0.984 -0.797,-1.781 -1.78,-1.781 -0.984,0 -1.782,0.797 -1.782,1.781 0,0.983 0.798,1.78 1.782,1.78 C -0.797,1.78 0,0.983 0,0" id="path3079" style="fill:#797a7d;fill-opacity:1;fill-rule:nonzero;stroke:none"/>
        </g>
        <g transform="translate(132.4667,40.1282)" id="g3081">
          <path d="m 0,0 c 0,-0.984 -0.797,-1.781 -1.78,-1.781 -0.984,0 -1.782,0.797 -1.782,1.781 0,0.983 0.798,1.78 1.782,1.78 C -0.797,1.78 0,0.983 0,0" id="path3083" style="fill:#797a7d;fill-opacity:1;fill-rule:nonzero;stroke:none"/>
        </g>
        <g transform="translate(155.4873,40.1282)" id="g3085">
          <path d="m 0,0 c 0,-0.984 -0.797,-1.781 -1.781,-1.781 -0.984,0 -1.781,0.797 -1.781,1.781 0,0.983 0.797,1.78 1.781,1.78 C -0.797,1.78 0,0.983 0,0" id="path3087" style="fill:#797a7d;fill-opacity:1;fill-rule:nonzero;stroke:none"/>
        </g>
        <g transform="translate(143.977,40.1282)" id="g3089">
          <path d="m 0,0 c 0,-0.984 -0.797,-1.781 -1.78,-1.781 -0.984,0 -1.782,0.797 -1.782,1.781 0,0.983 0.798,1.78 1.782,1.78 C -0.797,1.78 0,0.983 0,0" id="path3091" style="fill:#797a7d;fill-opacity:1;fill-rule:nonzero;stroke:none"/>
        </g>
      </g>
    </g>
  </g>
<head xmlns=""/></svg>
